X:203
T: Das Traenenkrueglein
N: Q1122C
O: Mitteleuropa, Deutschland (BRD) , Baden, Oberschefflenz
N: Melodievergleich zu Q0122A und B, anderes Lied.
R: ???
M: 3/4
L: 1/16
K: G
D2 | G2G2B4d4 | c4A4z2
G2 | F2G2A4e4 | d4B4z2
G2 | G2B2d4d2g2 | e4z2
d2e2dc | d4d4 | B8z2

@@@ Tune index: 1496
